icons/modern/no-pedestrians.svg

<svg width="32" height="32" viewBox="0 0 32 32" fill="none" xmlns="http://www.w3.org/2000/svg">
<g filter="url(#filter0_i_18590_631)">
<path d="M25.2815 22.2247C26.5688 20.4353 27.3313 18.2424 27.3313 15.875C27.3313 9.84496 22.4213 4.93496 16.3913 4.94496C14.0239 4.94496 11.8311 5.70742 10.0417 6.99461C9.91869 7.08311 9.9068 7.26041 10.014 7.36754L24.9087 22.2525C25.0159 22.3596 25.1931 22.3477 25.2815 22.2247Z" fill="url(#paint0_linear_18590_631)"/>
<path d="M7.51097 9.51529C6.22297 11.3047 5.45129 13.498 5.45129 15.875C5.45129 21.905 10.3613 26.815 16.3913 26.815C18.7588 26.815 20.9517 26.0432 22.7499 24.7552C22.8733 24.6668 22.8855 24.4892 22.7782 24.3818L7.88387 9.48754C7.77673 9.38039 7.59949 9.39231 7.51097 9.51529Z" fill="url(#paint1_linear_18590_631)"/>
</g>
<g filter="url(#filter1_ii_18590_631)">
<path d="M16.147 9.53522C16.9754 9.53522 17.647 8.86364 17.647 8.03522C17.647 7.20679 16.9754 6.53522 16.147 6.53522C15.3186 6.53522 14.647 7.20679 14.647 8.03522C14.647 8.86364 15.3186 9.53522 16.147 9.53522Z" fill="#504D52"/>
<path d="M17.94 9.894C18.2073 9.8547 18.4791 9.92521 18.6936 10.0895L21.5894 12.3075C21.7795 12.4532 21.9111 12.6623 21.9601 12.8967L22.4678 15.3248C22.5808 15.8654 22.2342 16.3953 21.6936 16.5083C21.153 16.6214 20.6232 16.2748 20.5101 15.7342L20.0785 13.6695L19.1578 12.9643L19.5685 15.9889C19.5828 16.0562 19.5903 16.126 19.5903 16.1976V18.9286L22.4292 22.8444C22.7534 23.2915 22.6537 23.9168 22.2066 24.241C21.7594 24.5651 21.1342 24.4654 20.81 24.0183L17.7807 19.84C17.657 19.6693 17.5903 19.4638 17.5903 19.253V17.8366L16.1171 19.6136V24.2148C16.1171 24.7671 15.6694 25.2148 15.1171 25.2148C14.5648 25.2148 14.1171 24.7671 14.1171 24.2148V19.253C14.1171 19.0199 14.1985 18.7942 14.3472 18.6148L16.2563 16.3122L16.0292 13.739L15.5204 14.9832C15.3892 15.304 15.1011 15.534 14.7592 15.591L11.3274 16.1629C10.7826 16.2537 10.2674 15.8856 10.1766 15.3408C10.0858 14.7961 10.4539 14.2809 10.9986 14.1901L13.8803 13.7099L15.0651 10.8129C15.1989 10.4857 15.4954 10.2535 15.8452 10.2021L17.94 9.894Z" fill="#504D52"/>
</g>
<g filter="url(#filter2_iii_18590_631)">
<path d="M16.3913 1.92499C8.70128 1.92499 2.44128 8.18499 2.44128 15.875C2.44128 23.565 8.70128 29.825 16.3913 29.825C24.0813 29.825 30.3413 23.575 30.3413 15.875C30.3413 8.17499 24.0913 1.92499 16.3913 1.92499ZM27.3313 15.875C27.3313 18.2424 26.5688 20.4353 25.2815 22.2247C25.1931 22.3477 25.0159 22.3596 24.9087 22.2525L10.014 7.36756C9.90679 7.26043 9.91868 7.08314 10.0417 6.99464C11.8311 5.70745 14.0239 4.94499 16.3913 4.94499C22.4213 4.93499 27.3313 9.84499 27.3313 15.875ZM5.45128 15.875C5.45128 13.498 6.22296 11.3047 7.51096 9.51531C7.59948 9.39234 7.77672 9.38042 7.88386 9.48756L22.7782 24.3819C22.8855 24.4892 22.8733 24.6668 22.7499 24.7552C20.9517 26.0433 18.7588 26.815 16.3913 26.815C10.3613 26.815 5.45128 21.905 5.45128 15.875Z" fill="url(#paint2_linear_18590_631)"/>
</g>
<defs>
<filter id="filter0_i_18590_631" x="5.15129" y="4.94495" width="22.18" height="22.17" filterUnits="userSpaceOnUse" color-interpolation-filters="sRGB">
<feFlood flood-opacity="0" result="BackgroundImageFix"/>
<feBlend mode="normal" in="SourceGraphic" in2="BackgroundImageFix" result="shape"/>
<feColorMatrix in="SourceAlpha" type="matrix" values="0 0 0 0 0 0 0 0 0 0 0 0 0 0 0 0 0 0 127 0" result="hardAlpha"/>
<feOffset dx="-0.3" dy="0.3"/>
<feGaussianBlur stdDeviation="0.3"/>
<feComposite in2="hardAlpha" operator="arithmetic" k2="-1" k3="1"/>
<feColorMatrix type="matrix" values="0 0 0 0 0.901961 0 0 0 0 0.819608 0 0 0 0 0.901961 0 0 0 1 0"/>
<feBlend mode="normal" in2="shape" result="effect1_innerShadow_18590_631"/>
</filter>
<filter id="filter1_ii_18590_631" x="9.56284" y="6.23522" width="13.3568" height="19.5796" filterUnits="userSpaceOnUse" color-interpolation-filters="sRGB">
<feFlood flood-opacity="0" result="BackgroundImageFix"/>
<feBlend mode="normal" in="SourceGraphic" in2="BackgroundImageFix" result="shape"/>
<feColorMatrix in="SourceAlpha" type="matrix" values="0 0 0 0 0 0 0 0 0 0 0 0 0 0 0 0 0 0 127 0" result="hardAlpha"/>
<feOffset dx="-0.6" dy="0.6"/>
<feGaussianBlur stdDeviation="0.5"/>
<feComposite in2="hardAlpha" operator="arithmetic" k2="-1" k3="1"/>
<feColorMatrix type="matrix" values="0 0 0 0 0.219608 0 0 0 0 0.164706 0 0 0 0 0.239216 0 0 0 1 0"/>
<feBlend mode="normal" in2="shape" result="effect1_innerShadow_18590_631"/>
<feColorMatrix in="SourceAlpha" type="matrix" values="0 0 0 0 0 0 0 0 0 0 0 0 0 0 0 0 0 0 127 0" result="hardAlpha"/>
<feOffset dx="0.3" dy="-0.3"/>
<feGaussianBlur stdDeviation="0.3"/>
<feComposite in2="hardAlpha" operator="arithmetic" k2="-1" k3="1"/>
<feColorMatrix type="matrix" values="0 0 0 0 0.360784 0 0 0 0 0.356863 0 0 0 0 0.364706 0 0 0 1 0"/>
<feBlend mode="normal" in2="effect1_innerShadow_18590_631" result="effect2_innerShadow_18590_631"/>
</filter>
<filter id="filter2_iii_18590_631" x="2.14128" y="1.52499" width="28.6" height="28.6" filterUnits="userSpaceOnUse" color-interpolation-filters="sRGB">
<feFlood flood-opacity="0" result="BackgroundImageFix"/>
<feBlend mode="normal" in="SourceGraphic" in2="BackgroundImageFix" result="shape"/>
<feColorMatrix in="SourceAlpha" type="matrix" values="0 0 0 0 0 0 0 0 0 0 0 0 0 0 0 0 0 0 127 0" result="hardAlpha"/>
<feOffset dy="-0.4"/>
<feGaussianBlur stdDeviation="0.2"/>
<feComposite in2="hardAlpha" operator="arithmetic" k2="-1" k3="1"/>
<feColorMatrix type="matrix" values="0 0 0 0 0.882353 0 0 0 0 0.113725 0 0 0 0 0.333333 0 0 0 1 0"/>
<feBlend mode="normal" in2="shape" result="effect1_innerShadow_18590_631"/>
<feColorMatrix in="SourceAlpha" type="matrix" values="0 0 0 0 0 0 0 0 0 0 0 0 0 0 0 0 0 0 127 0" result="hardAlpha"/>
<feOffset dx="0.4"/>
<feGaussianBlur stdDeviation="0.2"/>
<feComposite in2="hardAlpha" operator="arithmetic" k2="-1" k3="1"/>
<feColorMatrix type="matrix" values="0 0 0 0 0.827451 0 0 0 0 0.168627 0 0 0 0 0.172549 0 0 0 1 0"/>
<feBlend mode="normal" in2="effect1_innerShadow_18590_631" result="effect2_innerShadow_18590_631"/>
<feColorMatrix in="SourceAlpha" type="matrix" values="0 0 0 0 0 0 0 0 0 0 0 0 0 0 0 0 0 0 127 0" result="hardAlpha"/>
<feOffset dx="-0.3" dy="0.3"/>
<feGaussianBlur stdDeviation="0.15"/>
<feComposite in2="hardAlpha" operator="arithmetic" k2="-1" k3="1"/>
<feColorMatrix type="matrix" values="0 0 0 0 1 0 0 0 0 0.458824 0 0 0 0 0.568627 0 0 0 1 0"/>
<feBlend mode="normal" in2="effect2_innerShadow_18590_631" result="effect3_innerShadow_18590_631"/>
</filter>
<linearGradient id="paint0_linear_18590_631" x1="22.4413" y1="7.67496" x2="12.5038" y2="18.3625" gradientUnits="userSpaceOnUse">
<stop stop-color="#FFF7FF"/>
<stop offset="1" stop-color="#FBF2FF"/>
</linearGradient>
<linearGradient id="paint1_linear_18590_631" x1="22.4413" y1="7.67496" x2="12.5038" y2="18.3625" gradientUnits="userSpaceOnUse">
<stop stop-color="#FFF7FF"/>
<stop offset="1" stop-color="#FBF2FF"/>
</linearGradient>
<linearGradient id="paint2_linear_18590_631" x1="28.8163" y1="15.875" x2="11.3163" y2="15.875" gradientUnits="userSpaceOnUse">
<stop stop-color="#FF5075"/>
<stop offset="1" stop-color="#FF4B51"/>
</linearGradient>
</defs>
</svg>

<svg width="32" height="32" fill="none" xmlns="http://www.w3.org/2000/svg"><g filter="url(#a)"><path d="M25.282 22.225a10.84 10.84 0 0 0 2.05-6.35c0-6.03-4.91-10.94-10.94-10.93-2.368 0-4.56.762-6.35 2.05a.245.245 0 0 0-.028.373l14.895 14.885a.245.245 0 0 0 .373-.028Z" fill="url(#b)"/><path d="M7.511 9.515a10.852 10.852 0 0 0-2.06 6.36c0 6.03 4.91 10.94 10.94 10.94 2.368 0 4.56-.772 6.359-2.06a.245.245 0 0 0 .028-.373L7.884 9.488a.245.245 0 0 0-.373.027Z" fill="url(#c)"/></g><g filter="url(#d)" fill="#504D52"><path d="M16.147 9.535a1.5 1.5 0 1 0 0-3 1.5 1.5 0 0 0 0 3ZM17.94 9.894a1 1 0 0 1 .754.195l2.895 2.218a1 1 0 0 1 .371.59l.508 2.428a1 1 0 0 1-1.958.41l-.432-2.066-.92-.705.41 3.025c.015.067.022.137.022.209v2.73l2.84 3.916a1 1 0 1 1-1.62 1.174l-3.03-4.178a1 1 0 0 1-.19-.587v-1.416l-1.473 1.777v4.6a1 1 0 1 1-2 0v-4.961a1 1 0 0 1 .23-.638l1.91-2.303-.228-2.573-.509 1.244a1 1 0 0 1-.76.608l-3.433.572A1 1 0 0 1 11 14.19l2.881-.48 1.185-2.897a1 1 0 0 1 .78-.61l2.095-.309Z"/></g><g filter="url(#e)"><path d="M16.391 1.925c-7.69 0-13.95 6.26-13.95 13.95 0 7.69 6.26 13.95 13.95 13.95 7.69 0 13.95-6.25 13.95-13.95 0-7.7-6.25-13.95-13.95-13.95Zm10.94 13.95c0 2.367-.762 4.56-2.05 6.35a.245.245 0 0 1-.372.027L10.014 7.369a.245.245 0 0 1 .028-.373 10.84 10.84 0 0 1 6.35-2.05c6.03-.01 10.94 4.9 10.94 10.93Zm-21.88 0c0-2.377.772-4.57 2.06-6.36a.245.245 0 0 1 .373-.027l14.894 14.894a.245.245 0 0 1-.028.373 10.89 10.89 0 0 1-6.359 2.06c-6.03 0-10.94-4.91-10.94-10.94Z" fill="url(#f)"/></g><defs><linearGradient id="b" x1="22.441" y1="7.675" x2="12.504" y2="18.363" gradientUnits="userSpaceOnUse"><stop stop-color="#FFF7FF"/><stop offset="1" stop-color="#FBF2FF"/></linearGradient><linearGradient id="c" x1="22.441" y1="7.675" x2="12.504" y2="18.363" gradientUnits="userSpaceOnUse"><stop stop-color="#FFF7FF"/><stop offset="1" stop-color="#FBF2FF"/></linearGradient><linearGradient id="f" x1="28.816" y1="15.875" x2="11.316" y2="15.875" gradientUnits="userSpaceOnUse"><stop stop-color="#FF5075"/><stop offset="1" stop-color="#FF4B51"/></linearGradient><filter id="a" x="5.151" y="4.945" width="22.18" height="22.17" filterUnits="userSpaceOnUse" color-interpolation-filters="sRGB"><feFlood flood-opacity="0" result="BackgroundImageFix"/><feBlend in="SourceGraphic" in2="BackgroundImageFix" result="shape"/><feColorMatrix in="SourceAlpha" values="0 0 0 0 0 0 0 0 0 0 0 0 0 0 0 0 0 0 127 0" result="hardAlpha"/><feOffset dx="-.3" dy=".3"/><feGaussianBlur stdDeviation=".3"/><feComposite in2="hardAlpha" operator="arithmetic" k2="-1" k3="1"/><feColorMatrix values="0 0 0 0 0.901961 0 0 0 0 0.819608 0 0 0 0 0.901961 0 0 0 1 0"/><feBlend in2="shape" result="effect1_innerShadow_18590_631"/></filter><filter id="d" x="9.563" y="6.235" width="13.357" height="19.58" filterUnits="userSpaceOnUse" color-interpolation-filters="sRGB"><feFlood flood-opacity="0" result="BackgroundImageFix"/><feBlend in="SourceGraphic" in2="BackgroundImageFix" result="shape"/><feColorMatrix in="SourceAlpha" values="0 0 0 0 0 0 0 0 0 0 0 0 0 0 0 0 0 0 127 0" result="hardAlpha"/><feOffset dx="-.6" dy=".6"/><feGaussianBlur stdDeviation=".5"/><feComposite in2="hardAlpha" operator="arithmetic" k2="-1" k3="1"/><feColorMatrix values="0 0 0 0 0.219608 0 0 0 0 0.164706 0 0 0 0 0.239216 0 0 0 1 0"/><feBlend in2="shape" result="effect1_innerShadow_18590_631"/><feColorMatrix in="SourceAlpha" values="0 0 0 0 0 0 0 0 0 0 0 0 0 0 0 0 0 0 127 0" result="hardAlpha"/><feOffset dx=".3" dy="-.3"/><feGaussianBlur stdDeviation=".3"/><feComposite in2="hardAlpha" operator="arithmetic" k2="-1" k3="1"/><feColorMatrix values="0 0 0 0 0.360784 0 0 0 0 0.356863 0 0 0 0 0.364706 0 0 0 1 0"/><feBlend in2="effect1_innerShadow_18590_631" result="effect2_innerShadow_18590_631"/></filter><filter id="e" x="2.141" y="1.525" width="28.6" height="28.6" filterUnits="userSpaceOnUse" color-interpolation-filters="sRGB"><feFlood flood-opacity="0" result="BackgroundImageFix"/><feBlend in="SourceGraphic" in2="BackgroundImageFix" result="shape"/><feColorMatrix in="SourceAlpha" values="0 0 0 0 0 0 0 0 0 0 0 0 0 0 0 0 0 0 127 0" result="hardAlpha"/><feOffset dy="-.4"/><feGaussianBlur stdDeviation=".2"/><feComposite in2="hardAlpha" operator="arithmetic" k2="-1" k3="1"/><feColorMatrix values="0 0 0 0 0.882353 0 0 0 0 0.113725 0 0 0 0 0.333333 0 0 0 1 0"/><feBlend in2="shape" result="effect1_innerShadow_18590_631"/><feColorMatrix in="SourceAlpha" values="0 0 0 0 0 0 0 0 0 0 0 0 0 0 0 0 0 0 127 0" result="hardAlpha"/><feOffset dx=".4"/><feGaussianBlur stdDeviation=".2"/><feComposite in2="hardAlpha" operator="arithmetic" k2="-1" k3="1"/><feColorMatrix values="0 0 0 0 0.827451 0 0 0 0 0.168627 0 0 0 0 0.172549 0 0 0 1 0"/><feBlend in2="effect1_innerShadow_18590_631" result="effect2_innerShadow_18590_631"/><feColorMatrix in="SourceAlpha" values="0 0 0 0 0 0 0 0 0 0 0 0 0 0 0 0 0 0 127 0" result="hardAlpha"/><feOffset dx="-.3" dy=".3"/><feGaussianBlur stdDeviation=".15"/><feComposite in2="hardAlpha" operator="arithmetic" k2="-1" k3="1"/><feColorMatrix values="0 0 0 0 1 0 0 0 0 0.458824 0 0 0 0 0.568627 0 0 0 1 0"/><feBlend in2="effect2_innerShadow_18590_631" result="effect3_innerShadow_18590_631"/></filter></defs></svg>
